austria/municipalities/70401.svg

<?xml version="1.0" encoding="UTF-8"?>
<!DOCTYPE svg PUBLIC "-//W3C//DTD SVG 1.1//EN" "http://www.w3.org/Graphics/SVG/1.1/DTD/svg11.dtd">
<svg xmlns="http://www.w3.org/2000/svg" version="1.1" width="166px" height="192px" style="shape-rendering:geometricPrecision; text-rendering:geometricPrecision; image-rendering:optimizeQuality; fill-rule:evenodd; clip-rule:evenodd" xmlns:xlink="http://www.w3.org/1999/xlink">
<g><path style="opacity:1" fill="#060709" d="M -0.5,-0.5 C 54.8333,-0.5 110.167,-0.5 165.5,-0.5C 165.5,39.5 165.5,79.5 165.5,119.5C 157.038,159.629 132.705,183.629 92.5,191.5C 85.5,191.5 78.5,191.5 71.5,191.5C 30.925,182.925 6.92504,158.259 -0.5,117.5C -0.5,78.1667 -0.5,38.8333 -0.5,-0.5 Z"/></g>
<g><path style="opacity:1" fill="#253166" d="M 77.5,9.5 C 75.8624,10.7046 75.5291,12.0379 76.5,13.5C 77.1667,14.8333 77.8333,16.1667 78.5,17.5C 81.1797,23.6277 80.6797,29.6277 77,35.5C 70.7755,40.1728 64.9422,45.1728 59.5,50.5C 58.0027,52.2897 57.336,54.4563 57.5,57C 57.5085,58.7067 57.8418,60.2067 58.5,61.5C 60.4011,65.0743 63.0677,68.0743 66.5,70.5C 64.7806,72.5441 63.1139,74.5441 61.5,76.5C 60.9569,76.56 60.6236,76.8933 60.5,77.5C 62.396,78.4656 64.396,78.7989 66.5,78.5C 66.8288,91.6774 66.4955,104.677 65.5,117.5C 63.7041,116.207 62.0375,114.707 60.5,113C 59.365,112.251 58.365,112.417 57.5,113.5C 57.6236,114.107 57.9569,114.44 58.5,114.5C 59.2026,116.716 60.5359,118.549 62.5,120C 61.9056,120.464 61.2389,120.631 60.5,120.5C 58.1877,117.521 55.5211,114.854 52.5,112.5C 49.9285,113.728 48.5952,115.728 48.5,118.5C 48.4142,119.496 48.7476,120.329 49.5,121C 48.244,121.417 47.5774,122.25 47.5,123.5C 36.0726,131.117 32.406,141.45 36.5,154.5C 36.6854,156.196 37.5187,157.529 39,158.5C 39.3918,154.472 39.8918,150.472 40.5,146.5C 40.7497,144.326 41.7497,142.659 43.5,141.5C 48.7704,138.065 53.2704,133.731 57,128.5C 63.0352,134.703 69.2019,140.703 75.5,146.5C 76.8333,147.167 77.8333,148.167 78.5,149.5C 77.448,149.351 76.448,149.517 75.5,150C 70.8333,154.667 66.1667,159.333 61.5,164C 58.9454,165.444 56.2787,166.611 53.5,167.5C 54.8569,169.186 56.1902,170.852 57.5,172.5C 58.0798,174.749 59.4131,176.415 61.5,177.5C 66.1631,169.093 72.8297,161.427 81.5,154.5C 87.1098,158.772 92.4431,163.438 97.5,168.5C 99.588,170.336 100.921,172.669 101.5,175.5C 101.281,176.675 101.614,177.675 102.5,178.5C 103.107,178.376 103.44,178.043 103.5,177.5C 104.5,175.833 105.833,174.5 107.5,173.5C 109.587,172.415 110.92,170.749 111.5,168.5C 102.203,162.722 93.87,155.555 86.5,147C 87.5,146.667 88.5,146.333 89.5,146C 95.7019,139.631 102.035,133.464 108.5,127.5C 109.167,128.167 109.833,128.833 110.5,129.5C 117.001,134.327 122.001,140.327 125.5,147.5C 125.335,151.182 125.501,154.848 126,158.5C 127.039,157.756 127.539,156.756 127.5,155.5C 129.95,150.47 130.95,145.136 130.5,139.5C 130.969,136.607 129.969,134.607 127.5,133.5C 127.5,133.167 127.5,132.833 127.5,132.5C 124.658,127.492 120.658,123.659 115.5,121C 116.687,119.981 117.687,118.814 118.5,117.5C 118.376,116.893 118.043,116.56 117.5,116.5C 115.871,115.375 114.371,114.041 113,112.5C 112.617,113.056 112.117,113.389 111.5,113.5C 109.564,112.741 107.731,111.741 106,110.5C 104.97,110.836 104.47,111.503 104.5,112.5C 102.833,113.5 101.5,114.833 100.5,116.5C 98.5197,104.211 97.853,91.5441 98.5,78.5C 100.604,78.7989 102.604,78.4656 104.5,77.5C 104.376,76.8933 104.043,76.56 103.5,76.5C 102.5,76.1667 101.833,75.5 101.5,74.5C 101.297,72.9557 100.63,71.6223 99.5,70.5C 101.278,68.736 102.611,66.736 103.5,64.5C 106.922,57.0668 105.589,50.5668 99.5,45C 95.2467,42.2903 91.0801,39.457 87,36.5C 85.0924,33.7935 84.259,30.7935 84.5,27.5C 85.0508,23.2386 85.0508,19.0719 84.5,15C 85.448,14.5172 86.448,14.3505 87.5,14.5C 87.7373,13.209 87.404,12.209 86.5,11.5C 86.6716,10.5084 86.3382,9.84171 85.5,9.5C 84.6618,9.15829 84.3284,8.49162 84.5,7.5C 83.9717,6.27935 83.305,5.11268 82.5,4C 108.831,3.50003 135.165,3.33336 161.5,3.5C 161.667,41.8348 161.5,80.1681 161,118.5C 155.521,150.972 137.355,172.805 106.5,184C 64.1524,194.006 32.3191,180.172 11,142.5C 7.23912,134.217 4.90579,125.551 4,116.5C 3.50001,78.8348 3.33335,41.1681 3.5,3.5C 29.5021,3.33336 55.5021,3.50003 81.5,4C 79.548,5.41193 78.2147,7.24526 77.5,9.5 Z"/></g>
<g><path style="opacity:1" fill="#dfa01d" d="M 84.5,7.5 C 84.3284,8.49162 84.6618,9.15829 85.5,9.5C 82.8333,9.5 80.1667,9.5 77.5,9.5C 79.1454,8.52134 80.4787,7.188 81.5,5.5C 82.2652,6.61191 83.2652,7.27858 84.5,7.5 Z"/></g>
<g><path style="opacity:1" fill="#181714" d="M 77.5,9.5 C 80.1667,9.5 82.8333,9.5 85.5,9.5C 86.3382,9.84171 86.6716,10.5084 86.5,11.5C 83.6291,12.6787 80.7957,12.6787 78,11.5C 77.2828,12.0442 76.7828,12.7109 76.5,13.5C 75.5291,12.0379 75.8624,10.7046 77.5,9.5 Z"/></g>
<g><path style="opacity:1" fill="#d79a1e" d="M 86.5,11.5 C 83.6627,13.4023 80.3293,14.069 76.5,13.5C 76.7828,12.7109 77.2828,12.0442 78,11.5C 80.7957,12.6787 83.6291,12.6787 86.5,11.5 Z"/></g>
<g><path style="opacity:1" fill="#1e1c20" d="M 86.5,11.5 C 87.404,12.209 87.7373,13.209 87.5,14.5C 86.448,14.3505 85.448,14.5172 84.5,15C 85.0508,19.0719 85.0508,23.2386 84.5,27.5C 83.5488,23.9719 83.3821,20.3052 84,16.5C 81.9235,15.2427 80.0902,15.576 78.5,17.5C 77.8333,16.1667 77.1667,14.8333 76.5,13.5C 80.3293,14.069 83.6627,13.4023 86.5,11.5 Z"/></g>
<g><path style="opacity:1" fill="#e7a51c" d="M 84.5,27.5 C 84.259,30.7935 85.0924,33.7935 87,36.5C 91.0801,39.457 95.2467,42.2903 99.5,45C 105.589,50.5668 106.922,57.0668 103.5,64.5C 101.188,66.1455 99.1878,68.1455 97.5,70.5C 98.5213,72.188 99.8546,73.5213 101.5,74.5C 101.833,75.5 102.5,76.1667 103.5,76.5C 101.735,77.4614 99.7354,77.7947 97.5,77.5C 97.5,93.1667 97.5,108.833 97.5,124.5C 92.202,129.297 87.0354,134.297 82,139.5C 77.6632,133.997 72.8299,128.997 67.5,124.5C 67.5,108.833 67.5,93.1667 67.5,77.5C 65.2646,77.7947 63.2646,77.4614 61.5,76.5C 63.1139,74.5441 64.7806,72.5441 66.5,70.5C 63.0677,68.0743 60.4011,65.0743 58.5,61.5C 58.423,57.7852 58.7564,54.1185 59.5,50.5C 64.9422,45.1728 70.7755,40.1728 77,35.5C 80.6797,29.6277 81.1797,23.6277 78.5,17.5C 80.0902,15.576 81.9235,15.2427 84,16.5C 83.3821,20.3052 83.5488,23.9719 84.5,27.5 Z"/></g>
<g><path style="opacity:1" fill="#18181a" d="M 59.5,50.5 C 58.7564,54.1185 58.423,57.7852 58.5,61.5C 57.8418,60.2067 57.5085,58.7067 57.5,57C 57.336,54.4563 58.0027,52.2897 59.5,50.5 Z"/></g>
<g><path style="opacity:1" fill="#1a1e2e" d="M 103.5,64.5 C 102.611,66.736 101.278,68.736 99.5,70.5C 100.63,71.6223 101.297,72.9557 101.5,74.5C 99.8546,73.5213 98.5213,72.188 97.5,70.5C 99.1878,68.1455 101.188,66.1455 103.5,64.5 Z"/></g>
<g><path style="opacity:1" fill="#191916" d="M 61.5,76.5 C 63.2646,77.4614 65.2646,77.7947 67.5,77.5C 67.5,93.1667 67.5,108.833 67.5,124.5C 66.8333,122.833 66.1667,121.167 65.5,119.5C 65.5,118.833 65.5,118.167 65.5,117.5C 66.4955,104.677 66.8288,91.6774 66.5,78.5C 64.396,78.7989 62.396,78.4656 60.5,77.5C 60.6236,76.8933 60.9569,76.56 61.5,76.5 Z"/></g>
<g><path style="opacity:1" fill="#1a1916" d="M 103.5,76.5 C 104.043,76.56 104.376,76.8933 104.5,77.5C 102.604,78.4656 100.604,78.7989 98.5,78.5C 97.853,91.5441 98.5197,104.211 100.5,116.5C 100.167,117.167 99.8333,117.833 99.5,118.5C 98.8333,120.5 98.1667,122.5 97.5,124.5C 97.5,108.833 97.5,93.1667 97.5,77.5C 99.7354,77.7947 101.735,77.4614 103.5,76.5 Z"/></g>
<g><path style="opacity:1" fill="#d2971e" d="M 99.5,118.5 C 99.8333,117.833 100.167,117.167 100.5,116.5C 101.5,114.833 102.833,113.5 104.5,112.5C 106.535,111.356 107.368,112.023 107,114.5C 105.5,116 104,117.5 102.5,119C 101.423,119.47 100.423,119.303 99.5,118.5 Z"/></g>
<g><path style="opacity:1" fill="#e3a21c" d="M 60.5,120.5 C 67.7975,128.298 75.2975,135.965 83,143.5C 92.3389,133.328 101.839,123.328 111.5,113.5C 112.117,113.389 112.617,113.056 113,112.5C 114.371,114.041 115.871,115.375 117.5,116.5C 114.122,119.876 111.122,123.543 108.5,127.5C 102.035,133.464 95.7019,139.631 89.5,146C 88.5,146.333 87.5,146.667 86.5,147C 93.87,155.555 102.203,162.722 111.5,168.5C 109.413,169.585 108.08,171.251 107.5,173.5C 105.833,174.5 104.5,175.833 103.5,177.5C 102.833,176.833 102.167,176.167 101.5,175.5C 100.921,172.669 99.588,170.336 97.5,168.5C 92.1667,161.167 85.8333,154.833 78.5,149.5C 77.8333,148.167 76.8333,147.167 75.5,146.5C 67.2216,136.553 58.2216,127.22 48.5,118.5C 48.5952,115.728 49.9285,113.728 52.5,112.5C 55.5211,114.854 58.1877,117.521 60.5,120.5 Z"/></g>
<g><path style="opacity:1" fill="#d89b1d" d="M 65.5,117.5 C 65.5,118.167 65.5,118.833 65.5,119.5C 64.8826,119.611 64.3826,119.944 64,120.5C 62.669,118.004 60.8356,116.004 58.5,114.5C 57.9569,114.44 57.6236,114.107 57.5,113.5C 58.365,112.417 59.365,112.251 60.5,113C 62.0375,114.707 63.7041,116.207 65.5,117.5 Z"/></g>
<g><path style="opacity:1" fill="#fdfdfd" d="M -0.5,117.5 C 6.92504,158.259 30.925,182.925 71.5,191.5C 47.5,191.5 23.5,191.5 -0.5,191.5C -0.5,166.833 -0.5,142.167 -0.5,117.5 Z"/></g>
<g><path style="opacity:1" fill="#24212b" d="M 48.5,118.5 C 58.2216,127.22 67.2216,136.553 75.5,146.5C 69.2019,140.703 63.0352,134.703 57,128.5C 53.2704,133.731 48.7704,138.065 43.5,141.5C 47.2964,137.202 51.2964,133.036 55.5,129C 53.3333,126.833 51.1667,124.667 49,122.5C 48.6174,123.056 48.1174,123.389 47.5,123.5C 47.5774,122.25 48.244,121.417 49.5,121C 48.7476,120.329 48.4142,119.496 48.5,118.5 Z"/></g>
<g><path style="opacity:1" fill="#231f22" d="M 117.5,116.5 C 118.043,116.56 118.376,116.893 118.5,117.5C 117.687,118.814 116.687,119.981 115.5,121C 120.658,123.659 124.658,127.492 127.5,132.5C 123.853,129.189 120.187,125.855 116.5,122.5C 114.265,124.638 112.265,126.971 110.5,129.5C 109.833,128.833 109.167,128.167 108.5,127.5C 111.122,123.543 114.122,119.876 117.5,116.5 Z"/></g>
<g><path style="opacity:1" fill="#fdfdfd" d="M 165.5,119.5 C 165.5,143.5 165.5,167.5 165.5,191.5C 141.167,191.5 116.833,191.5 92.5,191.5C 132.705,183.629 157.038,159.629 165.5,119.5 Z"/></g>
<g><path style="opacity:1" fill="#e0a01d" d="M 43.5,141.5 C 41.7497,142.659 40.7497,144.326 40.5,146.5C 38.8906,149.149 38.0572,152.149 38,155.5C 37.6174,154.944 37.1174,154.611 36.5,154.5C 32.406,141.45 36.0726,131.117 47.5,123.5C 48.1174,123.389 48.6174,123.056 49,122.5C 51.1667,124.667 53.3333,126.833 55.5,129C 51.2964,133.036 47.2964,137.202 43.5,141.5 Z"/></g>
<g><path style="opacity:1" fill="#e5a41c" d="M 127.5,132.5 C 127.5,132.833 127.5,133.167 127.5,133.5C 128.514,135.574 129.514,137.574 130.5,139.5C 130.95,145.136 129.95,150.47 127.5,155.5C 126.833,152.833 126.167,150.167 125.5,147.5C 122.001,140.327 117.001,134.327 110.5,129.5C 112.265,126.971 114.265,124.638 116.5,122.5C 120.187,125.855 123.853,129.189 127.5,132.5 Z"/></g>
<g><path style="opacity:1" fill="#1f2030" d="M 111.5,113.5 C 101.839,123.328 92.3389,133.328 83,143.5C 75.2975,135.965 67.7975,128.298 60.5,120.5C 61.2389,120.631 61.9056,120.464 62.5,120C 60.5359,118.549 59.2026,116.716 58.5,114.5C 60.8356,116.004 62.669,118.004 64,120.5C 64.3826,119.944 64.8826,119.611 65.5,119.5C 66.1667,121.167 66.8333,122.833 67.5,124.5C 72.8299,128.997 77.6632,133.997 82,139.5C 87.0354,134.297 92.202,129.297 97.5,124.5C 98.1667,122.5 98.8333,120.5 99.5,118.5C 100.423,119.303 101.423,119.47 102.5,119C 104,117.5 105.5,116 107,114.5C 107.368,112.023 106.535,111.356 104.5,112.5C 104.47,111.503 104.97,110.836 106,110.5C 107.731,111.741 109.564,112.741 111.5,113.5 Z"/></g>
<g><path style="opacity:1" fill="#242121" d="M 127.5,133.5 C 129.969,134.607 130.969,136.607 130.5,139.5C 129.514,137.574 128.514,135.574 127.5,133.5 Z"/></g>
<g><path style="opacity:1" fill="#e0a01d" d="M 78.5,149.5 C 79.925,150.922 80.925,152.589 81.5,154.5C 72.8297,161.427 66.1631,169.093 61.5,177.5C 60.9202,175.251 59.5869,173.585 57.5,172.5C 56.1902,170.852 54.8569,169.186 53.5,167.5C 56.2787,166.611 58.9454,165.444 61.5,164C 66.1667,159.333 70.8333,154.667 75.5,150C 76.448,149.517 77.448,149.351 78.5,149.5 Z"/></g>
<g><path style="opacity:1" fill="#1f1c18" d="M 40.5,146.5 C 39.8918,150.472 39.3918,154.472 39,158.5C 37.5187,157.529 36.6854,156.196 36.5,154.5C 37.1174,154.611 37.6174,154.944 38,155.5C 38.0572,152.149 38.8906,149.149 40.5,146.5 Z"/></g>
<g><path style="opacity:1" fill="#161617" d="M 125.5,147.5 C 126.167,150.167 126.833,152.833 127.5,155.5C 127.539,156.756 127.039,157.756 126,158.5C 125.501,154.848 125.335,151.182 125.5,147.5 Z"/></g>
<g><path style="opacity:1" fill="#382b17" d="M 78.5,149.5 C 85.8333,154.833 92.1667,161.167 97.5,168.5C 92.4431,163.438 87.1098,158.772 81.5,154.5C 80.925,152.589 79.925,150.922 78.5,149.5 Z"/></g>
<g><path style="opacity:1" fill="#29231e" d="M 111.5,168.5 C 110.92,170.749 109.587,172.415 107.5,173.5C 108.08,171.251 109.413,169.585 111.5,168.5 Z"/></g>
<g><path style="opacity:1" fill="#292321" d="M 57.5,172.5 C 59.5869,173.585 60.9202,175.251 61.5,177.5C 59.4131,176.415 58.0798,174.749 57.5,172.5 Z"/></g>
<g><path style="opacity:1" fill="#47381d" d="M 101.5,175.5 C 102.167,176.167 102.833,176.833 103.5,177.5C 103.44,178.043 103.107,178.376 102.5,178.5C 101.614,177.675 101.281,176.675 101.5,175.5 Z"/></g>
</svg>

<svg xmlns="http://www.w3.org/2000/svg" width="166" height="192" style="shape-rendering:geometricPrecision;text-rendering:geometricPrecision;image-rendering:optimizeQuality;fill-rule:evenodd;clip-rule:evenodd"><path style="opacity:1" fill="#060709" d="M-.5-.5h166v120c-8.462 40.129-32.795 64.129-73 72h-21c-40.575-8.575-64.575-33.241-72-74V-.5z"/><path style="opacity:1" fill="#253166" d="M77.5 9.5c-1.638 1.205-1.97 2.538-1 4l2 4c2.68 6.128 2.18 12.128-1.5 18a176.216 176.216 0 0 0-17.5 15c-1.497 1.79-2.164 3.956-2 6.5.008 1.707.342 3.207 1 4.5 1.901 3.574 4.568 6.574 8 9a826.992 826.992 0 0 0-5 6c-.543.06-.876.393-1 1a9.864 9.864 0 0 0 6 1 380.845 380.845 0 0 1-1 39 31.473 31.473 0 0 1-5-4.5c-1.135-.749-2.135-.583-3 .5.124.607.457.94 1 1 .703 2.216 2.036 4.049 4 5.5a2.429 2.429 0 0 1-2 .5 45.415 45.415 0 0 0-8-8c-2.572 1.228-3.905 3.228-4 6-.086.996.248 1.829 1 2.5-1.256.417-1.923 1.25-2 2.5-11.427 7.617-15.094 17.95-11 31 .185 1.696 1.019 3.029 2.5 4 .392-4.028.892-8.028 1.5-12 .25-2.174 1.25-3.841 3-5 5.27-3.435 9.77-7.769 13.5-13a468.294 468.294 0 0 0 18.5 18 6.544 6.544 0 0 1 3 3 4.934 4.934 0 0 0-3 .5l-14 14a42.594 42.594 0 0 1-8 3.5c1.357 1.686 2.69 3.352 4 5 .58 2.249 1.913 3.915 4 5 4.663-8.407 11.33-16.073 20-23a157.348 157.348 0 0 1 16 14c2.088 1.836 3.421 4.169 4 7-.219 1.175.114 2.175 1 3 .607-.124.94-.457 1-1 1-1.667 2.333-3 4-4 2.087-1.085 3.42-2.751 4-5-9.297-5.778-17.63-12.945-25-21.5l3-1a494.934 494.934 0 0 1 19-18.5l2 2c6.501 4.827 11.501 10.827 15 18a60.931 60.931 0 0 0 .5 11c1.039-.744 1.539-1.744 1.5-3 2.45-5.03 3.45-10.364 3-16 .469-2.893-.531-4.893-3-6v-1c-2.842-5.008-6.842-8.841-12-11.5a14.972 14.972 0 0 0 3-3.5c-.124-.607-.457-.94-1-1a25.14 25.14 0 0 1-4.5-4c-.383.556-.883.889-1.5 1a25.194 25.194 0 0 1-5.5-3c-1.03.336-1.53 1.003-1.5 2-1.667 1-3 2.333-4 4-1.98-12.289-2.647-24.956-2-38a9.864 9.864 0 0 0 6-1c-.124-.607-.457-.94-1-1-1-.333-1.667-1-2-2-.203-1.544-.87-2.878-2-4 1.778-1.764 3.111-3.764 4-6 3.422-7.433 2.089-13.933-4-19.5A252.355 252.355 0 0 1 87 36.5c-1.908-2.706-2.741-5.706-2.5-9 .55-4.261.55-8.428 0-12.5a4.932 4.932 0 0 1 3-.5c.237-1.291-.096-2.291-1-3 .172-.992-.162-1.658-1-2-.838-.342-1.172-1.008-1-2a18.49 18.49 0 0 0-2-3.5c26.331-.5 52.665-.667 79-.5.167 38.335 0 76.668-.5 115-5.479 32.472-23.645 54.305-54.5 65.5-42.348 10.006-74.18-3.828-95.5-41.5a82.293 82.293 0 0 1-7-26c-.5-37.665-.667-75.332-.5-113 26.002-.167 52.002 0 78 .5-1.952 1.412-3.285 3.245-4 5.5z"/><path style="opacity:1" fill="#dfa01d" d="M84.5 7.5c-.172.992.162 1.658 1 2h-8c1.645-.979 2.979-2.312 4-4 .765 1.112 1.765 1.779 3 2z"/><path style="opacity:1" fill="#181714" d="M77.5 9.5h8c.838.342 1.172 1.008 1 2-2.87 1.179-5.704 1.179-8.5 0-.717.544-1.217 1.21-1.5 2-.97-1.462-.638-2.795 1-4z"/><path style="opacity:1" fill="#d79a1e" d="M86.5 11.5c-2.837 1.902-6.17 2.569-10 2 .283-.79.783-1.456 1.5-2 2.796 1.179 5.63 1.179 8.5 0z"/><path style="opacity:1" fill="#1e1c20" d="M86.5 11.5c.904.709 1.237 1.709 1 3a4.932 4.932 0 0 0-3 .5c.55 4.072.55 8.239 0 12.5-.951-3.528-1.118-7.195-.5-11-2.076-1.257-3.91-.924-5.5 1l-2-4c3.83.569 7.163-.098 10-2z"/><path style="opacity:1" fill="#e7a51c" d="M84.5 27.5c-.241 3.294.592 6.294 2.5 9 4.08 2.957 8.247 5.79 12.5 8.5 6.089 5.567 7.422 12.067 4 19.5a25.634 25.634 0 0 0-6 6c1.021 1.688 2.355 3.021 4 4 .333 1 1 1.667 2 2-1.765.961-3.765 1.295-6 1v47a327.01 327.01 0 0 0-15.5 15 102.926 102.926 0 0 0-14.5-15v-47c-2.235.295-4.235-.039-6-1a826.992 826.992 0 0 1 5-6c-3.432-2.426-6.099-5.426-8-9a49.391 49.391 0 0 1 1-11 176.216 176.216 0 0 1 17.5-15c3.68-5.872 4.18-11.872 1.5-18 1.59-1.924 3.424-2.257 5.5-1-.618 3.805-.451 7.472.5 11z"/><path style="opacity:1" fill="#18181a" d="M59.5 50.5a49.391 49.391 0 0 0-1 11c-.658-1.293-.992-2.793-1-4.5-.164-2.544.503-4.71 2-6.5z"/><path style="opacity:1" fill="#1a1e2e" d="M103.5 64.5c-.889 2.236-2.222 4.236-4 6 1.13 1.122 1.797 2.456 2 4-1.645-.979-2.979-2.312-4-4a25.634 25.634 0 0 1 6-6z"/><path style="opacity:1" fill="#191916" d="M61.5 76.5c1.765.961 3.765 1.295 6 1v47l-2-5v-2a380.845 380.845 0 0 0 1-39 9.864 9.864 0 0 1-6-1c.124-.607.457-.94 1-1z"/><path style="opacity:1" fill="#1a1916" d="M103.5 76.5c.543.06.876.393 1 1a9.864 9.864 0 0 1-6 1c-.647 13.044.02 25.711 2 38l-1 2-2 6v-47c2.235.295 4.235-.039 6-1z"/><path style="opacity:1" fill="#d2971e" d="m99.5 118.5 1-2c1-1.667 2.333-3 4-4 2.035-1.144 2.868-.477 2.5 2l-4.5 4.5c-1.077.47-2.077.303-3-.5z"/><path style="opacity:1" fill="#e3a21c" d="M60.5 120.5a728.998 728.998 0 0 0 22.5 23 1213.283 1213.283 0 0 1 28.5-30c.617-.111 1.117-.444 1.5-1a25.14 25.14 0 0 0 4.5 4 70.83 70.83 0 0 0-9 11 494.934 494.934 0 0 0-19 18.5l-3 1c7.37 8.555 15.703 15.722 25 21.5-2.087 1.085-3.42 2.751-4 5-1.667 1-3 2.333-4 4l-2-2c-.579-2.831-1.912-5.164-4-7a85.619 85.619 0 0 0-19-19 6.544 6.544 0 0 0-3-3 267.114 267.114 0 0 0-27-28c.095-2.772 1.428-4.772 4-6a45.415 45.415 0 0 1 8 8z"/><path style="opacity:1" fill="#d89b1d" d="M65.5 117.5v2c-.617.111-1.117.444-1.5 1-1.331-2.496-3.164-4.496-5.5-6-.543-.06-.876-.393-1-1 .865-1.083 1.865-1.249 3-.5a31.473 31.473 0 0 0 5 4.5z"/><path style="opacity:1" fill="#fdfdfd" d="M-.5 117.5c7.425 40.759 31.425 65.425 72 74h-72v-74z"/><path style="opacity:1" fill="#24212b" d="M48.5 118.5a267.114 267.114 0 0 1 27 28 468.294 468.294 0 0 1-18.5-18c-3.73 5.231-8.23 9.565-13.5 13a210.702 210.702 0 0 1 12-12.5l-6.5-6.5c-.383.556-.883.889-1.5 1 .077-1.25.744-2.083 2-2.5-.752-.671-1.086-1.504-1-2.5z"/><path style="opacity:1" fill="#231f22" d="M117.5 116.5c.543.06.876.393 1 1a14.972 14.972 0 0 1-3 3.5c5.158 2.659 9.158 6.492 12 11.5-3.647-3.311-7.313-6.645-11-10a46.463 46.463 0 0 0-6 7l-2-2a70.83 70.83 0 0 1 9-11z"/><path style="opacity:1" fill="#fdfdfd" d="M165.5 119.5v72h-73c40.205-7.871 64.538-31.871 73-72z"/><path style="opacity:1" fill="#e0a01d" d="M43.5 141.5c-1.75 1.159-2.75 2.826-3 5-1.61 2.649-2.443 5.649-2.5 9-.383-.556-.883-.889-1.5-1-4.094-13.05-.427-23.383 11-31 .617-.111 1.117-.444 1.5-1l6.5 6.5a210.702 210.702 0 0 0-12 12.5z"/><path style="opacity:1" fill="#e5a41c" d="M127.5 132.5v1a364.488 364.488 0 0 0 3 6c.45 5.636-.55 10.97-3 16l-2-8c-3.499-7.173-8.499-13.173-15-18a46.463 46.463 0 0 1 6-7c3.687 3.355 7.353 6.689 11 10z"/><path style="opacity:1" fill="#1f2030" d="M111.5 113.5a1213.283 1213.283 0 0 0-28.5 30 728.998 728.998 0 0 1-22.5-23 2.429 2.429 0 0 0 2-.5c-1.964-1.451-3.297-3.284-4-5.5 2.336 1.504 4.169 3.504 5.5 6 .383-.556.883-.889 1.5-1l2 5a102.926 102.926 0 0 1 14.5 15 327.01 327.01 0 0 1 15.5-15l2-6c.923.803 1.923.97 3 .5l4.5-4.5c.368-2.477-.465-3.144-2.5-2-.03-.997.47-1.664 1.5-2a25.194 25.194 0 0 0 5.5 3z"/><path style="opacity:1" fill="#242121" d="M127.5 133.5c2.469 1.107 3.469 3.107 3 6a364.488 364.488 0 0 1-3-6z"/><path style="opacity:1" fill="#e0a01d" d="M78.5 149.5a11.743 11.743 0 0 1 3 5c-8.67 6.927-15.337 14.593-20 23-.58-2.249-1.913-3.915-4-5-1.31-1.648-2.643-3.314-4-5a42.594 42.594 0 0 0 8-3.5l14-14a4.934 4.934 0 0 1 3-.5z"/><path style="opacity:1" fill="#1f1c18" d="M40.5 146.5a219.958 219.958 0 0 0-1.5 12c-1.481-.971-2.315-2.304-2.5-4 .617.111 1.117.444 1.5 1 .057-3.351.89-6.351 2.5-9z"/><path style="opacity:1" fill="#161617" d="m125.5 147.5 2 8c.039 1.256-.461 2.256-1.5 3a60.931 60.931 0 0 1-.5-11z"/><path style="opacity:1" fill="#382b17" d="M78.5 149.5a85.619 85.619 0 0 1 19 19 157.348 157.348 0 0 0-16-14 11.743 11.743 0 0 0-3-5z"/><path style="opacity:1" fill="#29231e" d="M111.5 168.5c-.58 2.249-1.913 3.915-4 5 .58-2.249 1.913-3.915 4-5z"/><path style="opacity:1" fill="#292321" d="M57.5 172.5c2.087 1.085 3.42 2.751 4 5-2.087-1.085-3.42-2.751-4-5z"/><path style="opacity:1" fill="#47381d" d="m101.5 175.5 2 2c-.06.543-.393.876-1 1-.886-.825-1.219-1.825-1-3z"/></svg>
